X: 22399
T: Ladar Mor A'Chogain
R: reel
M: 4/4
K: Eminor
E2 BG FDAF|E2BG BEEe|faef dBAF|E2BG BEBe:|
geeb fddf|geeb geeb|geeb fddf|geeb efec|
dfec dBAF|Eeeg faef|dfec dBFA|E2BG BEBe||

